svgs/duotone/mailbox.svg

<svg xmlns="http://www.w3.org/2000/svg" viewBox="0 0 576 512"><!--! Font Awesome Pro 6.2.0 by @fontawesome - https://fontawesome.com License - https://fontawesome.com/license (Commercial License) Copyright 2022 Fonticons, Inc. --><path d="M512 448H224c35.3 0 64-28.7 64-64V208c0-79.5-64.5-144-144-144H432c79.5 0 144 64.5 144 144V384c0 35.3-28.7 64-64 64zM400 192c-8.8 0-16 7.2-16 16s7.2 16 16 16h48v48c0 8.8 7.2 16 16 16h32c8.8 0 16-7.2 16-16V208c0-8.8-7.2-16-16-16H464 400z" class="fa-secondary"/></svg>

<svg xmlns="http://www.w3.org/2000/svg" viewBox="0 0 576 512"><!--! Font Awesome Pro 6.2.0 by @fontawesome - https://fontawesome.com License - https://fontawesome.com/license (Commercial License) Copyright 2022 Fonticons, Inc. --><defs><style>.fa-secondary{opacity:.4}</style></defs><path class="fa-primary" d="M512 208V272C512 280.8 504.8 288 496 288H464C455.2 288 448 280.8 448 272V224H400C391.2 224 384 216.8 384 208C384 199.2 391.2 192 400 192H496C504.8 192 512 199.2 512 208V208zM288 208V416C288 433.7 273.7 448 256 448L32 448C14.4 448 0 433.6 0 416V214.2C0 139 54.95 71.86 129.8 64.68C215.7 56.45 288 123.8 288 208zM224 208C224 199.2 216.8 192 208 192H80C71.16 192 64 199.2 64 208C64 216.8 71.16 224 80 224H208C216.8 224 224 216.8 224 208z"/><path class="fa-secondary" d="M576 208V416C576 433.6 561.6 448 544 448L256 448C273.7 448 288 433.7 288 416V208C288 128.9 223.9 65.44 144.9 64.84C144.6 64.6 144.3 64.22 144 64H432C511.5 64 576 128.5 576 208V208zM512 208C512 199.2 504.8 192 496 192H400C391.2 192 384 199.2 384 208C384 216.8 391.2 224 400 224H448V272C448 280.8 455.2 288 464 288H496C504.8 288 512 280.8 512 272V208z"/></svg>
